X:696
T: "Vorsorge"
N: Z1377
O: Europa, Mitteleuropa, Deutschland Schwaben
R: Kinder - Lied
M: 2/4
L: 1/8
K: A
E | ABcd | eec2 |
e2BB | cde2 |
cde2 | cde2 |
cde2 | cde2 |
c2dd | efe
d | ccee | cde2 |
c2dd | efe
d | cded | c3

@@@ Tune index: 10454
